svg/m/MW.svg

<svg width="20" height="15" viewBox="0 0 20 15" fill="none" xmlns="http://www.w3.org/2000/svg">
<mask id="mask0" mask-type="alpha" maskUnits="userSpaceOnUse" x="0" y="0" width="20" height="15">
<rect width="20" height="15" fill="white"/>
</mask>
<g mask="url(#mask0)">
<path fill-rule="evenodd" clip-rule="evenodd" d="M0 0V15H20V0H0Z" fill="#E11C1B"/>
<mask id="mask1" mask-type="alpha" maskUnits="userSpaceOnUse" x="0" y="0" width="20" height="15">
<path fill-rule="evenodd" clip-rule="evenodd" d="M0 0V15H20V0H0Z" fill="white"/>
</mask>
<g mask="url(#mask1)">
<path fill-rule="evenodd" clip-rule="evenodd" d="M0 0V6H20V0H0Z" fill="#272727"/>
<path fill-rule="evenodd" clip-rule="evenodd" d="M0 10V15H20V10H0Z" fill="#5EAA22"/>
<path fill-rule="evenodd" clip-rule="evenodd" d="M2.50103 8.66613V8.66461L2.49518 8.6656L2.50103 8.66613ZM2.89381 6.2792H2.95818L2.85952 6.26409L2.89381 6.2792ZM4.72351 6.2792C4.75623 6.2163 4.7904 6.15408 4.82597 6.09257L3.39506 5.14538L5.0828 5.6944C5.17719 5.56241 5.27839 5.43443 5.38598 5.31085L4.14572 4.13002L5.72624 4.95479C5.84219 4.84408 5.96371 4.73781 6.09043 4.63631L5.08738 3.25066L6.50396 4.33434C6.63574 4.24674 6.77195 4.16387 6.91224 4.08601L6.18976 2.53554L7.38641 3.84912C7.52902 3.78535 7.67505 3.72649 7.82419 3.67279L7.41743 2.00767L8.34402 3.51014C8.49319 3.47028 8.64491 3.43541 8.7989 3.40576L8.73094 1.68401L9.34727 3.32364C9.49945 3.30723 9.65345 3.29585 9.80902 3.28971L10.0881 1.57495L10.3672 3.29021C10.5226 3.29663 10.6764 3.30827 10.8284 3.32492L11.4452 1.68401L11.3771 3.40813C11.5306 3.43796 11.6817 3.47299 11.8304 3.51298L12.7587 2.00767L12.3509 3.67687C12.4992 3.73058 12.6444 3.78938 12.7862 3.85304L13.9864 2.53554L13.2614 4.09145C13.4005 4.16903 13.5357 4.25155 13.6664 4.33873L15.0888 3.25066L14.0812 4.64256C14.2067 4.74344 14.327 4.84901 14.4419 4.95895L16.0304 4.13002L14.7834 5.31726C14.8898 5.43988 14.9899 5.56679 15.0833 5.69765L16.7811 5.14538L15.3413 6.09847C15.3756 6.15806 15.4086 6.21831 15.4403 6.2792H14.2122C13.3659 5.10608 11.8191 4.32068 10.0511 4.32068C8.28318 4.32068 6.73635 5.10608 5.89004 6.2792H4.72351ZM6.59979 6.2792C7.4016 5.45221 8.66059 4.91936 10.0763 4.91936C11.4919 4.91936 12.7509 5.45221 13.5527 6.2792H6.59979ZM17.218 6.2792H17.2823L17.3166 6.26409L17.218 6.2792ZM17.676 8.66476L17.681 8.6656L17.676 8.66605V8.66476Z" fill="#E11C1B"/>
</g>
</g>
</svg>

<svg width="20" height="15" fill="none" xmlns="http://www.w3.org/2000/svg">
  <mask id="a" maskUnits="userSpaceOnUse" x="0" y="0" width="20" height="15">
    <path fill="#fff" d="M0 0h20v15H0z"/>
  </mask>
  <g mask="url(#a)">
    <path fill-rule="evenodd" clip-rule="evenodd" d="M0 0v15h20V0H0z" fill="#E11C1B"/>
    <mask id="b" maskUnits="userSpaceOnUse" x="0" y="0" width="20" height="15">
      <path fill-rule="evenodd" clip-rule="evenodd" d="M0 0v15h20V0H0z" fill="#fff"/>
    </mask>
    <g mask="url(#b)" fill-rule="evenodd" clip-rule="evenodd">
      <path d="M0 0v6h20V0H0z" fill="#272727"/>
      <path d="M0 10v5h20v-5H0z" fill="#5EAA22"/>
      <path d="M2.501 8.666v-.001h-.006l.006.001zm.393-2.387h.064l-.098-.015.034.015zm1.83 0c.032-.063.066-.125.102-.186l-1.43-.948 1.687.55a5.12 5.12 0 01.303-.384l-1.24-1.18 1.58.824a5.56 5.56 0 01.364-.319L5.087 3.251l1.417 1.083c.132-.087.268-.17.408-.248l-.722-1.55 1.196 1.313c.143-.064.29-.122.438-.176l-.407-1.665.927 1.502c.15-.04.3-.075.455-.104L8.73 1.684l.616 1.64c.152-.017.306-.028.462-.034l.28-1.715.278 1.715c.156.007.31.018.461.035l.617-1.641-.068 1.724c.154.03.305.065.453.105l.929-1.505-.408 1.669c.148.054.293.112.435.176l1.2-1.317-.725 1.555c.14.078.275.16.405.248L15.09 3.25l-1.01 1.393c.126.1.246.206.36.316l1.59-.829-1.248 1.187a5.1 5.1 0 01.3.38l1.698-.552-1.44.954c.035.06.068.12.1.18h-1.229c-.846-1.173-2.393-1.958-4.16-1.958-1.769 0-3.316.785-4.162 1.958H4.724zm1.876 0c.802-.827 2.06-1.36 3.476-1.36s2.675.533 3.477 1.36H6.6zm10.618 0h.064l.035-.015-.099.015zm.458 2.386h.005l-.005.001v-.001z" fill="#E11C1B"/>
    </g>
  </g>
</svg>
